app/img/photos/serv-6.svg

<svg width="66" height="66" viewBox="0 0 66 66" fill="none" xmlns="http://www.w3.org/2000/svg">
<path d="M27.8384 7.73438H38.1509C38.8624 7.73438 39.4399 7.15732 39.4399 6.44531C39.4399 5.73331 38.8624 5.15625 38.1509 5.15625H27.8384C27.1264 5.15625 26.5493 5.73331 26.5493 6.44531C26.5493 7.15732 27.1264 7.73438 27.8384 7.73438Z" fill="white"/>
<path d="M20.104 12.8906H22.6821C23.3941 12.8906 23.9712 12.3136 23.9712 11.6016C23.9712 10.8896 23.3941 10.3125 22.6821 10.3125H20.104C19.392 10.3125 18.8149 10.8896 18.8149 11.6016C18.8149 12.3136 19.392 12.8906 20.104 12.8906Z" fill="white"/>
<path d="M40.729 12.8906H45.8853C46.5968 12.8906 47.1743 12.3136 47.1743 11.6016C47.1743 10.8896 46.5968 10.3125 45.8853 10.3125H40.729C40.017 10.3125 39.4399 10.8896 39.4399 11.6016C39.4399 12.3136 40.017 12.8906 40.729 12.8906Z" fill="white"/>
<path d="M27.8384 10.3125C27.1264 10.3125 26.5493 10.8896 26.5493 11.6016C26.5493 12.3136 27.1264 12.8906 27.8384 12.8906H35.5728C36.2843 12.8906 36.8618 12.3136 36.8618 11.6016C36.8618 10.8896 36.2843 10.3125 35.5728 10.3125H27.8384Z" fill="white"/>
<path d="M20.104 18.0469H45.8853C46.5968 18.0469 47.1743 17.4698 47.1743 16.7578C47.1743 16.0458 46.5968 15.4688 45.8853 15.4688H20.104C19.392 15.4688 18.8149 16.0458 18.8149 16.7578C18.8149 17.4698 19.392 18.0469 20.104 18.0469Z" fill="white"/>
<path d="M45.8853 46.4062H20.104C19.392 46.4062 18.8149 46.9833 18.8149 47.6953C18.8149 48.4073 19.392 48.9844 20.104 48.9844H45.8853C46.5968 48.9844 47.1743 48.4073 47.1743 47.6953C47.1743 46.9833 46.5973 46.4062 45.8853 46.4062Z" fill="white"/>
<path d="M30.417 51.5625H20.1045C19.393 51.5625 18.814 52.1411 18.814 52.8516C18.814 53.5621 19.393 54.1406 20.1045 54.1406H30.417C31.127 54.1406 31.7061 53.5621 31.7061 52.8516C31.7061 52.1411 31.127 51.5625 30.417 51.5625Z" fill="white"/>
<path d="M35.5718 51.5625C34.8613 51.5625 34.2827 52.1411 34.2827 52.8516C34.2827 53.5621 34.8613 54.1406 35.5718 54.1406C36.2833 54.1406 36.8624 53.5621 36.8624 52.8516C36.8624 52.1411 36.2833 51.5625 35.5718 51.5625Z" fill="white"/>
<path d="M64.7109 20.625H54.9141V1.28906C54.9141 0.577057 54.337 0 53.625 0H12.375C11.663 0 11.0859 0.577057 11.0859 1.28906V20.625H1.28906C0.577057 20.625 0 21.2021 0 21.9141V42.5391C0 43.2511 0.577057 43.8281 1.28906 43.8281H5.92969V64.7109C5.92969 65.4229 6.50674 66 7.21875 66H58.7812C59.4933 66 60.0703 65.4229 60.0703 64.7109V43.8281H64.7109C65.4229 43.8281 66 43.2511 66 42.5391V21.9141C66 21.2021 65.4229 20.625 64.7109 20.625ZM13.6641 2.57812H52.3359V20.625H13.6641V2.57812ZM16.2422 23.2031H49.7578V25.7812H16.2422V23.2031ZM57.4922 63.4219H8.50781V43.8281H11.0859V59.5547C11.0859 60.2667 11.663 60.8438 12.375 60.8438H53.625C54.337 60.8438 54.9141 60.2667 54.9141 59.5547V43.8281H57.4922V63.4219ZM13.6641 43.8281H52.3359V58.2656H13.6641V43.8281ZM63.4219 41.25H2.57812V23.2031H13.6641V27.0703C13.6641 27.7823 14.2411 28.3594 14.9531 28.3594H51.0469C51.7589 28.3594 52.3359 27.7823 52.3359 27.0703V23.2031H63.4219V41.25Z" fill="white"/>
<path d="M18.0469 37.3828C18.0469 38.0948 17.4698 38.6719 16.7578 38.6719C16.0458 38.6719 15.4688 38.0948 15.4688 37.3828C15.4688 36.6708 16.0458 36.0938 16.7578 36.0938C17.4698 36.0938 18.0469 36.6708 18.0469 37.3828Z" fill="white"/>
<path d="M12.8906 37.3828C12.8906 38.0948 12.3136 38.6719 11.6016 38.6719C10.8896 38.6719 10.3125 38.0948 10.3125 37.3828C10.3125 36.6708 10.8896 36.0938 11.6016 36.0938C12.3136 36.0938 12.8906 36.6708 12.8906 37.3828Z" fill="white"/>
<path d="M7.73438 37.3828C7.73438 38.0948 7.15732 38.6719 6.44531 38.6719C5.73331 38.6719 5.15625 38.0948 5.15625 37.3828C5.15625 36.6708 5.73331 36.0938 6.44531 36.0938C7.15732 36.0938 7.73438 36.6708 7.73438 37.3828Z" fill="white"/>
<path d="M12.8906 32.2266C12.8906 32.9386 12.3136 33.5156 11.6016 33.5156C10.8896 33.5156 10.3125 32.9386 10.3125 32.2266C10.3125 31.5146 10.8896 30.9375 11.6016 30.9375C12.3136 30.9375 12.8906 31.5146 12.8906 32.2266Z" fill="white"/>
<path d="M7.73438 32.2266C7.73438 32.9386 7.15732 33.5156 6.44531 33.5156C5.73331 33.5156 5.15625 32.9386 5.15625 32.2266C5.15625 31.5146 5.73331 30.9375 6.44531 30.9375C7.15732 30.9375 7.73438 31.5146 7.73438 32.2266Z" fill="white"/>
<path d="M18.0469 32.2266C18.0469 32.9386 17.4698 33.5156 16.7578 33.5156C16.0458 33.5156 15.4688 32.9386 15.4688 32.2266C15.4688 31.5146 16.0458 30.9375 16.7578 30.9375C17.4698 30.9375 18.0469 31.5146 18.0469 32.2266Z" fill="white"/>
<path d="M54.3984 38.6719H59.5547C60.2667 38.6719 60.8438 38.0948 60.8438 37.3828V34.8047C60.8438 32.6722 59.1091 30.9375 56.9766 30.9375C54.8441 30.9375 53.1094 32.6722 53.1094 34.8047V37.3828C53.1094 38.0948 53.6864 38.6719 54.3984 38.6719ZM55.6875 34.8047C55.6875 34.0937 56.2656 33.5156 56.9766 33.5156C57.6876 33.5156 58.2656 34.0937 58.2656 34.8047V36.0938H55.6875V34.8047Z" fill="white"/>
</svg>

<svg width="66" height="66" viewBox="0 0 66 66" fill="none" xmlns="http://www.w3.org/2000/svg"><path d="M27.838 7.734h10.313a1.29 1.29 0 0 0 0-2.578H27.838a1.289 1.289 0 1 0 0 2.578zm-7.734 5.156h2.578a1.289 1.289 0 1 0 0-2.578h-2.578a1.289 1.289 0 1 0 0 2.579zm20.625 0h5.156a1.29 1.29 0 0 0 0-2.578H40.73a1.289 1.289 0 1 0 0 2.579zm-12.891-2.577a1.289 1.289 0 1 0 0 2.578h7.735a1.29 1.29 0 0 0 0-2.579h-7.735zm-7.734 7.734h25.781a1.29 1.29 0 0 0 0-2.578H20.104a1.289 1.289 0 1 0 0 2.578zm25.781 28.359H20.104a1.289 1.289 0 1 0 0 2.578h25.781a1.29 1.29 0 0 0 0-2.578zm-15.468 5.157H20.104c-.711 0-1.29.578-1.29 1.289 0 .71.579 1.289 1.29 1.289h10.313c.71 0 1.29-.579 1.29-1.29 0-.71-.58-1.288-1.29-1.288zm5.155 0c-.71 0-1.29.578-1.29 1.289a1.29 1.29 0 0 0 2.58 0c0-.71-.579-1.29-1.29-1.29z" fill="#fff"/><path d="M64.71 20.625h-9.796V1.289C54.914.577 54.337 0 53.625 0h-41.25a1.29 1.29 0 0 0-1.29 1.29v19.335H1.29a1.29 1.29 0 0 0-1.289 1.29v20.624c0 .712.577 1.29 1.29 1.29h4.64V64.71c0 .712.577 1.289 1.289 1.289h51.56a1.29 1.29 0 0 0 1.29-1.29v-20.88h4.64c.712 0 1.289-.577 1.289-1.289V21.914a1.29 1.29 0 0 0-1.29-1.289zM13.665 2.578h38.672v18.047H13.664V2.578zm2.578 20.625h33.516v2.578H16.242v-2.578zm41.25 40.219H8.508V43.828h2.578v15.727c0 .712.577 1.289 1.289 1.289h41.25a1.29 1.29 0 0 0 1.29-1.29V43.829h2.577v19.594zM13.664 43.828h38.672v14.438H13.664V43.828zm49.758-2.578H2.578V23.203h11.086v3.867c0 .712.577 1.29 1.29 1.29h36.093a1.29 1.29 0 0 0 1.289-1.29v-3.867h11.086V41.25z" fill="#fff"/><path d="M18.047 37.383a1.289 1.289 0 1 1-2.578 0 1.289 1.289 0 0 1 2.578 0zm-5.157 0a1.289 1.289 0 1 1-2.577 0 1.289 1.289 0 0 1 2.578 0zm-5.156 0a1.289 1.289 0 1 1-2.578 0 1.289 1.289 0 0 1 2.578 0zm5.156-5.156a1.289 1.289 0 1 1-2.577 0 1.289 1.289 0 0 1 2.578 0zm-5.156 0a1.289 1.289 0 1 1-2.577 0 1.289 1.289 0 0 1 2.577 0zm10.313 0a1.289 1.289 0 1 1-2.578 0 1.289 1.289 0 0 1 2.578 0zm36.351 6.445h5.157a1.29 1.29 0 0 0 1.289-1.29v-2.577a3.871 3.871 0 0 0-3.867-3.867 3.871 3.871 0 0 0-3.868 3.867v2.578a1.29 1.29 0 0 0 1.29 1.289zm1.29-3.867a1.29 1.29 0 0 1 2.578 0v1.289h-2.578v-1.29z" fill="#fff"/></svg>
